Obsidian/actions/22s/view-certificate.svg

<svg height="22" viewBox="0 0 22 22" width="22" xmlns="http://www.w3.org/2000/svg"><path d="m0 1v14c5.3333-.002 10.667.005906 16 .003906v-13.9999998c-5.333.0019001-10.667-.0059062-16-.0039062zm9 2h6v1h-6zm-5.5 1c.831 0 1.5.669 1.5 1.5v1.5h1v3h-5v-3h1v-1.5c0-.831.669-1.5 1.5-1.5zm0 1c-.277 0-.5.223-.5.5v1.5h1v-1.5c0-.277-.223-.5-.5-.5zm5.5 1h6v1h-6zm0 3h6v1h-6z" fill="#bebebe" transform="translate(3 3)"/></svg>

<svg xmlns="http://www.w3.org/2000/svg" width="22" height="22" viewBox="0 0 22 22">
 <defs>
  <style id="current-color-scheme" type="text/css">
   .ColorScheme-Text { color:#bebebe; } .ColorScheme-Highlight { color:#4285f4; }
  </style>
 </defs>
 <path style="fill:currentColor" class="ColorScheme-Text" d="M 0 1 L 0 15 C 5.3333 14.998 10.667 15.005906 16 15.003906 L 16 1.0039062 C 10.667 1.0058063 5.333 0.998 0 1 z M 9 3 L 15 3 L 15 4 L 9 4 L 9 3 z M 3.5 4 C 4.331 4 5 4.669 5 5.5 L 5 7 L 6 7 L 6 10 L 1 10 L 1 7 L 2 7 L 2 5.5 C 2 4.669 2.669 4 3.5 4 z M 3.5 5 C 3.223 5 3 5.223 3 5.5 L 3 7 L 4 7 L 4 5.5 C 4 5.223 3.777 5 3.5 5 z M 9 6 L 15 6 L 15 7 L 9 7 L 9 6 z M 9 9 L 15 9 L 15 10 L 9 10 L 9 9 z" transform="translate(3 3)"/>
</svg>
